randhid/ik-trajectory/traj.csv
time,joint1,joint2,joint3,joint4,joint5,joint6
0.0,0.24266545993698088,0.17291004796779574,0.08523912331179007,-1.413525936316696,-0.05961335496921283,-0.2424854662469314
0.05,0.2429539544874714,0.17311561330279113,0.08346444397249803,-1.4152064166360223,-0.057817721110409184,-0.24277374681064887
0.1,0.24381225851616553,0.17372719350382593,0.07818457153135529,-1.4202060363022053,-0.05247550659561001,-0.243631414204408
0.15000000000000002,0.2452296025888973,0.17473711486497295,0.06946575435346199,-1.4284620633775518,-0.04365374201723299,-0.2450477069821191
0.2,0.2471952172715007,0.17613770368030504,0.05737424080391819,-1.439911765924368,-0.031419457967695776,-0.2470118636976924
0.25,0.2496983331298097,0.17792128624389514,0.041976279247824044,-1.454492412004961,-0.01583968503941605,-0.2495131229050381
0.30000000000000004,0.25272818072965836,0.180080188849816,0.023338118050279622,-1.4721412696816372,0.003018546175188558,-0.2525407231580664
0.35000000000000003,0.25627399063688056,0.18260673779214054,0.001526005576385056,-1.492795607016703,0.02508820508370035,-0.2560839030106876
0.4,0.26032499341731036,0.18549325936494163,-0.02339380980875957,-1.5163926920724653,0.05030226109370167,-0.26013190101681194
0.45,0.26487041963678176,0.1887320798622921,-0.05135507974005411,-1.5428697929112303,0.07859368361277483,-0.2646739557303496
0.5,0.2698994981545595,0.19231552436225752,-0.08229154535440765,-1.5721641676545417,0.10989543142655636,-0.26969930399990744
0.55,0.27538702655238356,0.19622563500898413,-0.11604817352932234,-1.604129012254235,0.14405064085954744,-0.2751827621007645
0.6000000000000001,0.2812583356344521,0.2004092066440981,-0.1521656353837297,-1.6383293787579434,0.18059455950667302,-0.28104971622194413
0.65,0.2874281658744044,0.20480548802266907,-0.190119455430474,-1.674268630553846,0.21899651913846863,-0.2872149700771396
0.7000000000000001,0.2938112577458797,0.2093537278997668,-0.22938515818239988,-1.711450131030122,0.25872585152547,-0.29359332738004396
0.75,0.3003241178575147,0.2139944334810342,-0.2694491325630837,-1.749387531308635,0.2992628811304329,-0.30010135666934207
0.8,0.3069129201284642,0.21868925126439748,-0.30998026648243876,-1.7877672945500453,0.34027258625853335,-0.3066852717889265
0.8500000000000001,0.3135484563722445,0.22341736910408538,-0.35079888526376146,-1.8264192831123598,0.3815731707250096,-0.3133158862170753
0.9,0.320202263621618,0.22815850585653638,-0.39172989845974177,-1.8651777002545606,0.42298747670276476,-0.3199647580985559
0.9500000000000001,0.3268466134542145,0.23289290377442484,-0.43260273418883854,-1.9038810279583702,0.46434291828341867,-0.32660417957816534
1.0,0.33347099656986867,0.23761307450899194,-0.47335274430486585,-1.9424680495662547,0.5055740839880465,-0.3332236491508636
1.05,0.3400823050726112,0.24232392899415844,-0.5140223257078937,-1.980978911573747,0.546723871317954,-0.3398300538085606
1.1,0.34668820206900636,0.24703092753780626,-0.5546586181337364,-2.0194582515649677,0.5878399766112051,-0.34643105097381865
1.1500000000000001,0.3532962285602077,0.2517394434422239,-0.595308010184613,-2.057949995860207,0.6289693362032628,-0.35303417605436027
1.2000000000000002,0.35990970708722775,0.2564518441672302,-0.6359909405304354,-2.0964734982558264,0.6701326300935557,-0.35964274912674965
1.25,0.3665267677347289,0.2611667973140949,-0.6766959063538701,-2.1350178664978183,0.7113182196452783,-0.3662549016626328
1.3,0.3731452210436928,0.26588274279485175,-0.7174094391589704,-2.1735703469907213,0.7525124773332698,-0.3728684458269916
1.35,0.3797629000439413,0.27059813654584375,-0.7581182087902871,-2.2121183171365297,0.7937019156063216,-0.37948121625696757
1.4000000000000001,0.3863788798075189,0.2753123195143274,-0.7988165255371135,-2.250656389231305,0.8348807775724892,-0.3860922887106575
1.4500000000000002,0.3929941012916671,0.28002596217463316,-0.839510177714594,-2.2891900443495543,0.8760549198924265,-0.39270260344736113
1.5,0.3996096592258952,0.284739844570744,-0.8802058995707019,-2.3277256592890088,0.9172311563287138,-0.39931325438458753
1.55,0.4062266376124499,0.28945473910298675,-0.920910359364467,-2.366269548361113,0.9584162338758233,-0.40592532472054005
1.6,0.41284504318034404,0.29417065056608543,-0.9616235984895305,-2.404821750762356,0.9996101944161523,-0.41253882117924034
1.6500000000000001,0.41946289974547446,0.2988861708400373,-1.0023334604143648,-2.4433707552233326,1.0408007378799733,-0.41915176904239193
1.7000000000000002,0.4260780178488228,0.30359973983687616,-1.0430264766430228,-2.4819038081485787,1.0819742367421246,-0.42576198047497704
1.75,0.43268822005062146,0.3083098060328921,-1.0836892526161905,-2.520408225954749,1.1231171382870846,-0.4323672796523131
1.8,0.43929407714622537,0.31301677614543266,-1.1243252995916098,-2.5588873335239226,1.1642329952317576,-0.43896823694637593
1.85,0.44590239294273026,0.31772549819288326,-1.164976471309187,-2.5973807630221155,1.2053641555039238,-0.44557165111763286
1.9000000000000001,0.45252083054669995,0.3224414324831257,-1.205689907504737,-2.635933152033451,1.2465583154416482,-0.45218517958864646
1.9500000000000002,0.45915704299254817,0.32717003214718204,-1.2465126859550617,-2.674589079471785,1.287863108692402,-0.45881646971729956
2.0,0.4658102937290391,0.33191077235918903,-1.2874402757521841,-2.713344254927289,1.3292739508495304,-0.46546478549868325
2.0500000000000003,0.4724562410230245,0.3366463085401227,-1.3283229382933204,-2.7520568878412672,1.3706393352722694,-0.472105803254787
2.1,0.47906642190726634,0.3413563595464211,-1.3689855831311604,-2.7905611814727025,1.4117821041335215,-0.47871108113037836
2.15,0.48561237264826074,0.3460206436885241,-1.409253115104694,-2.8286913346170763,1.4525250948368338,-0.4852521765045272
2.2,0.4920548841151473,0.35061122269825096,-1.4488843385506718,-2.8662189541465586,1.492624263802084,-0.491689909329194
2.25,0.4983169867878963,0.3550732523328165,-1.4874057741027773,-2.902695692723642,1.5316005410571494,-0.4979473671754076
2.3000000000000003,0.5043134211401471,0.3593459813472906,-1.5242929462738555,-2.937624913736505,1.5689232583725663,-0.5039393537568612
2.35,0.509958927645539,0.3633686584967428,-1.55902137957675,-2.970509980573328,1.6040617475188694,-0.509580672787248
2.4000000000000004,0.5151704630312083,0.3670821117164798,-1.5910802318469643,-3.0008671662955515,1.6364991345646585,-0.5147883425898833
2.45,0.5199035297949701,0.37045463453604127,-1.6201957759113397,-3.028437273020396,1.6659584603042243,-0.5195178986679783
2.5,0.5241463228784857,0.37347781532072577,-1.6462953927443251,-3.0531515363009296,1.6923662482631496,-0.5237575447194298
2.5500000000000003,0.5278880728475889,0.37614398036460617,-1.6693128339808203,-3.0749472241994593,1.715655467849017,-0.5274965192981484
2.6,0.5311180102681137,0.3784454559617552,-1.6891818512557253,-3.093761604778291,1.7357590884694083,-0.5307240609580441
2.6500000000000004,0.5338253657058942,0.3803745684062459,-1.7058361962039401,-3.1095319460997324,1.7526100795319062,-0.5334294082530272
2.7,0.5359993697267642,0.381923643992151,-1.7192096204603642,-3.1221955162260886,1.7661414104440925,-0.5356017997370079
2.75,0.5376292528965576,0.3830850090135434,-1.7292358756598978,-3.1316895832196674,1.77628605061355,-0.5372304739638966
2.8000000000000003,0.5387042457811086,0.3838509897644959,-1.7358487134374407,-3.1379514151427745,1.7829769694478614,-0.5383046694876031
2.85,0.5392135789462514,0.3842139125390815,-1.738981885427893,-3.140918280057717,1.7861471363546082,-0.538813624862038
2.9000000000000004,0.5391464829578196,0.3841661036313729,-1.738569143266154,-3.140527446026801,1.785729520741373,-0.5387465786411114
