randhid/ik-trajectory/traj.csv
time,joint1,joint2,joint3,joint4,joint5,joint6
0.0,0.2427274424134296,0.17014370489048955,0.08978807294126312,1.4135809513190805,-0.058087786554385845,-0.24275402158729092
0.05,0.24278624827648865,0.17018492580605912,0.08942752208671088,1.4139234212393317,-0.05772149380356565,-0.2428128338897177
0.1,0.24295905698800663,0.17030605885192604,0.08836799629505074,1.4149298138432953,-0.05664509469954988,-0.242985661524159
0.15000000000000002,0.24324045523149493,0.17050330947682746,0.08664268572427748,1.416568603395785,-0.05489230796500576,-0.24326709058135657
0.2,0.24362502969046484,0.1707728831295006,0.08428478053238594,1.418808264161615,-0.05249685232260049,-0.2436517071520519
0.25,0.2441073670484277,0.17111098525868265,0.08132747087737092,1.4216172704056005,-0.04949244649500132,-0.24413409732698665
0.30000000000000004,0.2446820539888949,0.1715138213131108,0.0778039469172272,1.424964096392555,-0.04591280920487545,-0.24470884719690236
0.35000000000000003,0.24534367719537764,0.17197759674152227,0.07374739880994964,1.4288172163872923,-0.04179165917489012,-0.24537054285254073
0.4,0.2460868233513874,0.17249851699265423,0.069191016713533,1.4331451046546277,-0.03716271512771252,-0.24611377038464327
0.45,0.2469060791404354,0.17307278751524388,0.06416799078597213,1.4379162354593746,-0.03205969578600991,-0.24693311588395167
0.5,0.24779603124603308,0.17369661375802847,0.058711511185261835,1.4430990830663477,-0.026516319872449484,-0.24782316544120747
0.55,0.24875126635169167,0.1743662011697451,0.05285476806939692,1.4486621217403612,-0.02056630610969846,-0.2487785051471523
0.6000000000000001,0.2497663711409226,0.17507775519913107,0.04663095159637218,1.454573825746229,-0.014243373220424077,-0.2497937210925278
0.65,0.2508359322972371,0.17582748129492354,0.04007325192418246,1.4608026693487661,-0.0075812399272935545,-0.25086339936807545
0.7000000000000001,0.2519545365041466,0.17661158490585965,0.03321485921082253,1.4673171268127858,-0.0006136249529741008,-0.251982126064537
0.75,0.25311677044516234,0.1774262714806767,0.026088963614287242,1.474085672403103,0.006625752979867044,-0.253144487272654
0.8,0.2543172208037957,0.17826774646811183,0.018728755292571356,1.4810767803845317,0.0141031751485627,-0.25434506908316806
0.8500000000000001,0.25555047426355804,0.17913221531690224,0.011167424403669728,1.4882589250218863,0.02178492283044562,-0.25557845758682074
0.9,0.25681111750796065,0.18001588347578512,0.003438161105577181,1.4956005805799806,0.02963727730284855,-0.25683923887435367
0.9500000000000001,0.2580937372205149,0.1809149563934977,-0.004425844443711531,1.5030702213236296,0.03762651984310432,-0.2581219990365085
1.0,0.259392920084732,0.18182563951877714,-0.012391402086201542,1.5106363215176468,0.04571893172854568,-0.2594213241640268
1.05,0.26070325278412354,0.18274413830036068,-0.020425321663898093,1.5182673554268469,0.05388079423650543,-0.26073180034765014
1.1,0.2620193220022006,0.18366665818698547,-0.02849441301880632,1.525931797316044,0.062078388644316355,-0.26204801367812025
1.1500000000000001,0.26333571442247466,0.18458940462738876,-0.03656548599293147,1.5335981214500525,0.07027799622931119,-0.26336455024617855
1.2000000000000002,0.26464701672845703,0.18550858307030768,-0.04460535042827872,1.5412348020936866,0.07844589826882277,-0.26467599614256676
1.25,0.2659478156036589,0.1864203989644795,-0.05258081616685317,1.5488103135117601,0.08654837604018378,-0.2659769374580265
1.3,0.2672326977315918,0.18732105775864138,-0.060458693050660095,1.5562931299690876,0.09455171082072714,-0.26726196028329924
1.35,0.268496249795767,0.18820676490153054,-0.06820579092170469,1.5636517257304836,0.1024221838877855,-0.26852565070912676
1.4000000000000001,0.26973305850869483,0.18907372586221152,-0.07578891979979133,1.5708545752296446,0.11012607669932244,-0.2697625948552528
1.4500000000000002,0.27093895824712205,0.18991902068006325,-0.08318253939105137,1.5778774189694882,0.1176374422235121,-0.2709686266422794
1.5,0.2721143534490989,0.19074293285244226,-0.09038912938844519,1.5847226122911249,0.1249587996432774,-0.2721441505525437
1.55,0.27326069464418185,0.19154647915137205,-0.0974175832873471,1.5913986026981821,0.13209918408596294,-0.27329061727443815
1.6,0.27437943236192713,0.19233067634887596,-0.1042767945831314,1.5979138376942865,0.1390676306789132,-0.2744094774963553
1.6500000000000001,0.27547201713189123,0.1930965412169776,-0.11097565677117238,1.6042767647830658,0.14587317454947277,-0.27550218190668746
1.7000000000000002,0.2765398994836304,0.19384509052770038,-0.11752306334684436,1.6104958314681468,0.1525248508249861,-0.27657018119382704
1.75,0.27758452994670096,0.19457734105306765,-0.12392790780552157,1.6165794852531565,0.1590316946327977,-0.27761492604616667
1.8,0.27860735905065936,0.19529430956510302,-0.13019908364257837,1.6225361736417225,0.16540274110025224,-0.27863786715209865
1.85,0.2796098373250619,0.19599701283582988,-0.13634548435338908,1.6283743441374714,0.17164702535469414,-0.2796404552000154
1.9000000000000001,0.280593415299465,0.19668646763727166,-0.14237600343332799,1.6341024442440308,0.17777358252346798,-0.28062414087830945
1.9500000000000002,0.281559543503425,0.19736369074145185,-0.14829953437776935,1.6397289214650272,0.18379144773391828,-0.2815903748753732
2.0,0.2825096724664982,0.19802969892039393,-0.1541249706820875,1.6452622233040883,0.18970965611338952,-0.28254060787959906
2.0500000000000003,0.28344525271824095,0.19868550894612133,-0.15986120584165672,1.650710797264841,0.19553724278922635,-0.28347629057937956
2.1,0.2843677347882097,0.1993321375906575,-0.16551713335185134,1.6560830908509125,0.20128324288877314,-0.2843988736631071
2.15,0.2852785692059607,0.1999706016260259,-0.1711016467080456,1.6613875515659298,0.20695669153937454,-0.28530980781917414
2.2,0.28617920650105044,0.20060191782425,-0.17662363940561393,1.66663262691352,0.2125666238683751,-0.28621054373597304
2.25,0.28707109720303503,0.20122710295735327,-0.18209200493993044,1.6718267643973104,0.21812207500311925,-0.28710253210189635
2.3000000000000003,0.2879556918414712,0.20184717379735917,-0.18751563680636962,1.676978411520928,0.22363208007095164,-0.28798722360533646
2.35,0.2888344409459149,0.2024631471162911,-0.19290342850030562,1.682096015788,0.22910567419921665,-0.2888660689346858
2.4000000000000004,0.2897087950459228,0.20307603968617255,-0.19826427351711287,1.6871880247021533,0.23455189251525901,-0.28974051877833684
2.45,0.29058020467105106,0.20368686827902707,-0.20360706535216555,1.6922628857670154,0.23997977014642305,-0.29061202382468204
2.5,0.2914501203508561,0.20429664966687794,-0.20894069750083802,1.697329046486213,0.24539834222005338,-0.29148203476211376
2.5500000000000003,0.2923199926148944,0.20490640062174875,-0.21427406345850458,1.7023949543633734,0.2508166438634946,-0.2923520022790246
2.6,0.29319127199272205,0.20551713791566298,-0.21961605672053952,1.7074690569021242,0.25624371020409115,-0.29322337706380686
2.6500000000000004,0.29406540901389566,0.20612987832064394,-0.2249755707823172,1.7125598016060914,0.2616885763691876,-0.294097609804853
2.7,0.29494385420797137,0.20674563860871523,-0.2303614991392118,1.7176756359789034,0.2671602774861285,-0.29497615119055554
2.75,0.29582805810450574,0.20736543555190026,-0.23578273528659766,1.7228250075241864,0.27266784868225824,-0.2958604519093068
2.8000000000000003,0.2967194711708871,0.20799028587864485,-0.24124817233868492,1.7280163633835184,0.27822032469768726,-0.2967519625873247
2.85,0.2976191802995795,0.20862095146370377,-0.24676447425696188,1.7332560333334917,0.2838244756197805,-0.29765177023609013
2.9000000000000004,0.2985270523245788,0.20925733896222448,-0.2523308245732383,1.7385432418502302,0.28947947197781126,-0.29855974167501703
2.95,0.2994426984441483,0.20989917583737597,-0.2579448394640116,1.7438757246544119,0.29518289198506853,-0.2994754880597942
3.0,0.3003657298565511,0.21054618955232718,-0.26360413510577935,1.7492512174667136,0.3009323138548413,-0.30039862054610994
3.0500000000000003,0.3012957577600506,0.2111981075702471,-0.2693063276750394,1.7546674560078133,0.3067253158004189,-0.3013287502896531
3.1,0.3022323933529099,0.2118546573543047,-0.2750490333482891,1.760122175998387,0.31255947603509027,-0.3022654884461123
3.1500000000000004,0.3031752478333924,0.21251556636766894,-0.28082986830202633,1.7656131131591128,0.31843237277214453,-0.30320844617117604
3.2,0.3041239323997612,0.21318056207350877,-0.2866464487127484,1.7711380032106678,0.3243415842248708,-0.304157234620533
3.25,0.30507805825027967,0.21384937193499323,-0.2924963907569532,1.7766945818737296,0.3302846886065581,-0.3051114649498719
3.3000000000000003,0.306037236583211,0.21452172341529122,-0.29837731061113815,1.7822805848689751,0.3362592641304957,-0.30607074831488124
3.35,0.30700107859681836,0.21519734397757173,-0.30428682445180094,1.7878937479170813,0.3422628890099725,-0.3070346958712497
3.4000000000000004,0.30796919548936513,0.21587596108500373,-0.3102225484554392,1.7935318067387263,0.3482931414582776,-0.30800291877466585
3.45,0.3089411984591145,0.21655730220075622,-0.31618209879855036,1.7991924970545863,0.3543475996887003,-0.3089750281808184
3.5,0.3099166987043296,0.21724109478799813,-0.3221630916576323,1.8048735545853394,0.3604238419145295,-0.30995063524539584
3.5500000000000003,0.31089530742327387,0.21792706630989842,-0.3281631432091825,1.8105727150516626,0.36651944634905426,-0.310929351124087
3.6,0.3118766358142104,0.21861494422962613,-0.3341798696296985,1.8162877141742333,0.3726319912055639,-0.31191078697258035
3.6500000000000004,0.3128602950754026,0.21930445601035015,-0.3402108870956781,1.8220162876737285,0.37875905469734733,-0.31289455394656446
3.7,0.3138458964051135,0.21999532911523947,-0.34625381178361864,1.8277561712708255,0.38489821503769367,-0.3138802632017281
3.75,0.3148330510016066,0.2206872910074631,-0.35230625987001796,1.8335051006862018,0.391047050439892,-0.3148675258937599
3.8000000000000003,0.31582137006314487,0.22138006915018998,-0.3583658475313737,1.8392608116405345,0.3972031391172316,-0.3158559531783483
3.85,0.3168104647879918,0.2220733910065891,-0.36443019094418316,1.8450210398545008,0.4033640592830013,-0.31684515621118203
3.9000000000000004,0.31779994637441045,0.2227669840398294,-0.37049690628494436,1.850783521048778,0.40952738915049036,-0.3178347461479498
3.95,0.3187894260206642,0.22346057571307987,-0.37656360973015457,1.8565459909440436,0.4156907069329878,-0.3188243341443402
4.0,0.31977851492501613,0.22415389348950945,-0.38262791745631153,1.8623061852609746,0.4218515908437828,-0.3198135313560417
4.05,0.3207668242857296,0.22484666483228716,-0.38868744563991287,1.868061839720248,0.42800761909616436,-0.3208019489387431
4.1000000000000005,0.321753965301068,0.22553861720458193,-0.3947398104574563,1.873810690042542,0.4341563699034217,-0.321789198048133
4.15,0.3227395491692942,0.22622947806956276,-0.4007826280854392,1.879550471948533,0.4402954214788437,-0.3227748898398999
4.2,0.3237231871449641,0.22691897492985758,-0.40681351504549884,1.88527892148673,0.4464223523863557,-0.32375863552603096
4.25,0.32470459622105086,0.22760690940713907,-0.41283073616328364,1.8909943904984496,0.45253539981835805,-0.3247401520685096
4.3,0.3256838187129234,0.22829331116304563,-0.4188345508830331,1.8966971254172995,0.4586348273508291,-0.32571948178733845
4.3500000000000005,0.3266609592979724,0.228978253572878,-0.42482560100338274,1.9023877358569443,0.464721287003268,-0.3266967293713705
4.4,0.3276361226535886,0.22966181001193678,-0.4308045283229674,1.908066831431047,0.4707954307951736,-0.32767199950945886
4.45,0.3286094134571625,0.2303440538555227,-0.4367719746404225,1.9137350217532716,0.47685791074604517,-0.3286453968904566
4.5,0.3295809363860849,0.23102505847893637,-0.4427285817543834,1.9193929164372825,0.4829093788753817,-0.3296170262032167
4.55,0.3305507961177464,0.23170489725747845,-0.4486749914634852,1.9250411250967427,0.4889504872026823,-0.33058699213659226
4.6000000000000005,0.33151909732953777,0.2323836435664496,-0.45461184556636347,1.9306802573453163,0.49498188774744634,-0.33155539937943634
4.65,0.33248594469884957,0.23306137078115052,-0.46053978586165306,1.9363109227966675,0.5010042325291725,-0.3325223526206021
4.7,0.33345144290307244,0.23373815227688186,-0.46645945414798945,1.9419337310644598,0.5070181735673599,-0.3334879565489424
4.75,0.33441569661959714,0.23441406142894425,-0.4723714922240078,1.9475492917623567,0.5130243628815079,-0.3344523158533105
4.800000000000001,0.3353788105258143,0.23508917161263837,-0.47827654188834356,1.9531582145040225,0.5190234524911156,-0.3354155352225594
4.8500000000000005,0.3363408892991145,0.23576355620326492,-0.48417524493963177,1.958761108903121,0.5250160944156816,-0.3363777193455421
4.9,0.3373020376168886,0.23643728857612448,-0.49006824317650777,1.9643585845733156,0.5310029406747054,-0.3373389729111118
4.95,0.33826236015652705,0.23711044210651777,-0.49595617839760686,1.9699512511282706,0.5369846432876862,-0.33829940060812136
5.0,0.3392219615954206,0.23778309016974544,-0.5018396924015642,1.9755397181816494,0.5429618542741228,-0.339259107125424
5.050000000000001,0.34018094661096,0.2384553061411082,-0.5077194269870152,1.9811245953471162,0.5489352256535145,-0.3402181971518728
5.1000000000000005,0.34113941988053587,0.2391271633959066,-0.5135960239525952,1.9867064922383344,0.5549054094453602,-0.3411767753763207
5.15,0.3420974860815387,0.2397987353094414,-0.5194701250969389,1.9922860184689681,0.5608730576691592,-0.34213494648762083
5.2,0.34305524989135944,0.2404700952570132,-0.5253423722186822,1.9978637836526811,0.5668388223444102,-0.34309281517462625
5.25,0.34401281598738853,0.2411413166139227,-0.53121340711646,2.0034403974031374,0.5728033554906129,-0.34405048612619005
5.300000000000001,0.34497028904701676,0.24181247275547058,-0.5370838715889078,2.0090164693340005,0.5787673091272658,-0.34500806403116524
5.3500000000000005,0.3459277737476347,0.24248363705695744,-0.5429544074346606,2.014592609058933,0.5847313352738683,-0.345965653578405
5.4,0.34688537476663317,0.24315488289368403,-0.5488256564523539,2.0201694261916017,0.5906960859499194,-0.3469233594567621
5.45,0.3478431967814027,0.2438262836409509,-0.5546982604406229,2.025747530345668,0.5966622131749183,-0.3478812863550899
5.5,0.348801344469334,0.2444979126740588,-0.5605728611981025,2.0313275311347967,0.602630368968364,-0.3488395389622414
5.550000000000001,0.3497599225078177,0.24516984336830835,-0.5664501005234285,2.0369100381726506,0.6086012053497557,-0.34979822196706967
5.6000000000000005,0.3507190355378535,0.24584214907349136,-0.5723306199921154,2.0424956608609635,0.6145753741119184,-0.3507574400220327
5.65,0.3516787570425502,0.24651488129877497,-0.5782148701442335,2.048084827146084,0.6205533329699282,-0.35171726661828595
5.7,0.35263907253058,0.24718802988622973,-0.584102762130468,2.0536774526343193,0.6265349916595142,-0.3526776872629147
5.75,0.35359995209411704,0.2478615738714841,-0.5899941125797801,2.0592733631503384,0.632520163889391,-0.3536386720448182
5.800000000000001,0.3545613658253354,0.24853549229016644,-0.5958887381211315,2.0648723845188077,0.6385086633682733,-0.35460019105289536
5.8500000000000005,0.35552328381640896,0.24920976417790514,-0.6017864553834831,2.0704743425643954,0.6445003038048752,-0.35556221437604546
5.9,0.35648567615951204,0.24988436857032853,-0.6076870809957966,2.0760790631117687,0.6504948989079117,-0.3565247121031676
5.95,0.3574485129468187,0.2505592845030651,-0.6135904315870331,2.0816863719855943,0.656492262386097,-0.3574876543231609
6.0,0.358411764270503,0.25123449101174306,-0.6194963237861542,2.087296095010541,0.662492207948146,-0.35845101112492433
6.050000000000001,0.35937540022273906,0.25190996713199093,-0.6254045742221213,2.0929080580112753,0.668494549302773,-0.35941475259735733
6.1000000000000005,0.3603393908957009,0.252585691899437,-0.6313149995238951,2.0985220868124657,0.6744991001586924,-0.3603788488293588
6.15,0.36130370638156273,0.2532616443497098,-0.6372274163204378,2.1041380072387788,0.6805056742246192,-0.36134326990982785
6.2,0.36226831677249854,0.25393780351843764,-0.6431416412407104,2.109755645114882,0.6865140852092675,-0.3623079859276638
6.25,0.3632331921606825,0.2546141484412488,-0.649057490913674,2.115374826265443,0.6925241468213521,-0.3632729669717654
6.300000000000001,0.36419830263828873,0.25529065815377183,-0.6549747819682905,2.120995376515129,0.6985356727695876,-0.36423818313103223
6.3500000000000005,0.3651636182974913,0.255967311691635,-0.660893331033521,2.126617121688609,0.7045484767626883,-0.3652036044943631
6.4,0.3661291092304642,0.2566440880904667,-0.6668129547383266,2.1322398876105484,0.7105623725093688,-0.3661692011506574
6.45,0.3670947455293816,0.2573209663858953,-0.6727334697116688,2.1378635001056163,0.7165771737183437,-0.36713494318881384
6.5,0.3680604972864177,0.2579979256135493,-0.6786546925825092,2.143487784998479,0.7225926940983277,-0.368100800697732
6.550000000000001,0.36902633459374645,0.2586749448090569,-0.684576439979809,2.149112568113804,0.7286087473580353,-0.3690667437663107
6.6000000000000005,0.369992227543542,0.2593520030080466,-0.6904985285325295,2.15473767527626,0.7346251472061808,-0.3700327424834492
6.65,0.37095814622797846,0.2600290792461468,-0.696420774869632,2.1603629323105142,0.7406417073514788,-0.3709987669380466
6.7,0.37192406073922984,0.2607061525589858,-0.702342995620078,2.165988165041233,0.7466582415026441,-0.371964787219002
6.75,0.3728899411694704,0.2613832019821921,-0.7082650074128287,2.1716131992930845,0.752674563368391,-0.37293077341521463
6.800000000000001,0.37385575761087414,0.262060206551394,-0.7141866268768459,2.1772378608907363,0.7586904866574344,-0.37389669561558336
6.8500000000000005,0.3748214801556151,0.26273714530221987,-0.7201076706410903,2.182861975658856,0.7647058250784884,-0.3748625239090076
6.9,0.3757870788958675,0.2634139972702981,-0.7260279553345236,2.1884853694221107,0.7707203923402676,-0.3758282283843863
6.95,0.3767525239238053,0.26409074149125705,-0.7319472975861072,2.194107868005168,0.7767340021514868,-0.37679377913061873
7.0,0.3777177853552947,0.2647673570173325,-0.7378655141700631,2.1997292973706712,0.7827464683684344,-0.3777591462602985
7.050000000000001,0.3786828444906119,0.26544383074065214,-0.7437824904345339,2.205349548616335,0.7887576745133832,-0.3787243110716541
7.1000000000000005,0.3796477116411151,0.2661201698891285,-0.749698289600581,2.2109686817928047,0.794767684814211,-0.37968928387717304
7.15,0.3806124017607174,0.2667963849449475,-0.7556130033537238,2.2165867839877467,0.8007765924165612,-0.38065407963240583
7.2,0.3815769298033317,0.26747248639029475,-0.7615267233794815,2.222203942288827,0.8067844904660759,-0.38161871329290287
7.25,0.382541310722871,0.2681484847073562,-0.7674395413633733,2.2278202437837127,0.8127914721083983,-0.3825831998142145
7.300000000000001,0.38350555947324816,0.2688243903783177,-0.7733515489909187,2.2334357755600696,0.818797630489171,-0.38354755415189123
7.3500000000000005,0.3844696910083762,0.2695002138853649,-0.7792628379476371,2.2390506247055635,0.8248030587540366,-0.3845117912614836
7.4,0.38543372028216805,0.2701759657106836,-0.7851734999190477,2.2446648783078613,0.8308078500486379,-0.3854759260985419
7.45,0.3863976622485367,0.2708516563364598,-0.7910836265906698,2.250278623454629,0.8368120975186177,-0.38643997361861665
7.5,0.38736153186139505,0.27152729624487915,-0.7969933096480228,2.255891947233533,0.8428158943096186,-0.38740394877725814
7.550000000000001,0.388325344074656,0.2722028959181276,-0.8029026407766261,2.2615049367322397,0.8488193335672836,-0.3883678665300171
7.6000000000000005,0.3892891138422327,0.2728784658383908,-0.8088117116619987,2.2671176790384147,0.8548225084372552,-0.3893317418324436
7.65,0.3902528561180379,0.27355401648785466,-0.8147206139896602,2.272730261239725,0.860825512065176,-0.39029558964008837
7.7,0.3912165858559847,0.27422955834870494,-0.8206294394451299,2.278342770423836,0.8668284375966888,-0.3912594249085017
7.75,0.3921803180099859,0.2749051019031275,-0.8265382797139271,2.283955293678415,0.8728313781774365,-0.39222326259323415
7.800000000000001,0.39314406753395453,0.2755806576333081,-0.8324472264815711,2.289567918091128,0.878834426953062,-0.39318711764983605
7.8500000000000005,0.39410784938180354,0.27625623602143257,-0.8383563714335812,2.2951807307496406,0.8848376770692076,-0.3941510050338578
7.9,0.3950716785074459,0.27693184754968664,-0.8442658062554768,2.3007938187416195,0.890841221671516,-0.39511493970085
7.95,0.39603556986479455,0.27760750270025625,-0.850175622632777,2.3064072691547306,0.8968451539056302,-0.39607893660636295
8.0,0.3969995384077625,0.2782832119553272,-0.8560859122510014,2.3120211690766412,0.9028495669171929,-0.3970430107059471
8.05,0.3979635990902626,0.2789589857970852,-0.8619967667956694,2.3176356055950165,0.908854553851847,-0.3980071769551529
8.1,0.3989277668662078,0.2796348347077161,-0.8679082779522997,2.323250665797523,0.9148602078552346,-0.39897145030953085
8.15,0.3998920566895111,0.2803107691694058,-0.8738205374064125,2.3288664367718277,0.9208666220729991,-0.3999358457246314
8.200000000000001,0.4008564835140855,0.2809867996643399,-0.8797336368435266,2.3344830056055956,0.926873889650783,-0.40090037815600493
8.25,0.40182106229384384,0.2816629366747044,-0.8856476679491612,2.3401004593864934,0.9328821037342286,-0.4018650625592018
8.3,0.4027858079826992,0.2823391906826851,-0.8915627224088359,2.3457188852021877,0.9388913574689794,-0.4028299138897725
8.35,0.4037507355345645,0.2830155721704677,-0.89747889190807,2.3513383701403447,0.9449017440006775,-0.4037949471032676
8.4,0.4047158598624127,0.2836920915915406,-0.9033962678813723,2.356959001050208,0.950913356219958,-0.404760177114293
8.450000000000001,0.4056811838747062,0.2843687509846372,-0.9093148681611234,2.3625807948698982,0.9569262122431884,-0.4057256068316296
8.5,0.40664668184292224,0.2850455323149357,-0.9152345350004529,2.368203601763248,0.962940151811325,-0.40669121052393725
8.55,0.4076123238592349,0.2857224146180645,-0.9211550850283224,2.373827247554926,0.9689549886330826,-0.40765695828011506
8.6,0.40857808001581825,0.2863993769296519,-0.927076334873693,2.379451558069598,0.9749705364171755,-0.40862282018906226
8.65,0.4095439204048464,0.2870763982853263,-0.9329981011655265,2.3850763591319324,0.9809866088723186,-0.4095887663396778
8.700000000000001,0.4105098151184935,0.2877534577207161,-0.9389202005327837,2.390701476566597,0.987003019707226,-0.41055476682086095
8.75,0.41147573424893347,0.28843053427144966,-0.9448424496044261,2.3963267361982585,0.9930195826306124,-0.4115207917215108
8.8,0.41244164788834065,0.2891076069731554,-0.9507646650094154,2.401951963851585,0.9990361113511927,-0.41248681113052643
8.85,0.4134075261288889,0.2897846548614617,-0.9566866633767123,2.4075769853512434,1.0050524195776809,-0.413452795136807
8.9,0.4143733390627526,0.290461656971997,-0.9626082613352789,2.4132016265219023,1.011068321018792,-0.41441871382925166
8.950000000000001,0.4153390567821056,0.29113859234038947,-0.9685292755140761,2.4188257131882276,1.0170836293832404,-0.41538453729675956
9.0,0.41630464937912204,0.2918154400022677,-0.9744495225420653,2.4244490711748883,1.02309815837974,-0.41635023562822965
9.05,0.41727008694597617,0.2924921789932601,-0.9803688190482079,2.4300715263065507,1.0291117217170067,-0.4173157789125612
9.1,0.41823533957484177,0.29316878834899474,-0.9862869816614652,2.4356929044078828,1.0351241331037542,-0.41828113723865334
9.15,0.4192003773578933,0.29384524710510035,-0.9922038270107989,2.4413130313035523,1.0411352062486967,-0.41924628069540515
9.200000000000001,0.4201651703873046,0.2945215342972052,-0.99811917172517,2.4469317328182267,1.0471447548605497,-0.4202111793717158
9.25,0.42112968875524986,0.29519762896093765,-1.0040328324335395,2.4525488347765725,1.0531525926480265,-0.4211758033564844
9.3,0.4220939025539033,0.295873510131926,-1.0099446257648697,2.458164163003258,1.059158533319843,-0.42214012273861007
9.35,0.4230577818754387,0.29654915684579874,-1.0158543683481214,2.4637775433229514,1.0651623905847127,-0.42310410760699185
9.4,0.42402129681203043,0.29722454813818433,-1.0217618768122558,2.4693888015603185,1.071163978151351,-0.42406772805052906
9.450000000000001,0.4249844174558525,0.297899663044711,-1.0276669677862345,2.474997763540028,1.0771631097284717,-0.42503095415812064
9.5,0.42594711389907897,0.2985744806010071,-1.0335694578990187,2.4806042550867464,1.0831595990247895,-0.42599375601866574
9.55,0.426909356233884,0.29924897984270127,-1.03946916377957,2.4862081020251425,1.0891532597490199,-0.4269561037210635
9.600000000000001,0.4278711145524417,0.2999231398054216,-1.0453659020568498,2.491809130179883,1.095143905609876,-0.42791796735421317
9.65,0.428832358946926,0.3005969395247966,-1.0512594893598188,2.4974071653756353,1.101131350316073,-0.4288793170070137
9.700000000000001,0.4297930595095112,0.30127035803645463,-1.0571497423174392,2.5030020334370673,1.1071154075763254,-0.42984012276836436
9.75,0.43075318633237125,0.3019433743760241,-1.0630364775586716,2.5085935601888463,1.1130958910993478,-0.43080035472716416
9.8,0.4317127097027132,0.30261596771584487,-1.068919512908265,2.5141815725914594,1.119072615808685,-0.43175998316736647
9.850000000000001,0.4326716384363079,0.3032881442354732,-1.0747989024175242,2.519766121985644,1.125045636616428,-0.4327190169057075
9.9,0.43363006596672216,0.3039599694286706,-1.0806752189468867,2.525347752503984,1.1310155355060132,-0.43367754938598535
9.950000000000001,0.43458809697134665,0.30463151667073785,-1.086549104294988,2.5309270737601426,1.13698296449694,-0.43463568529705304
10.0,0.43554583612757214,0.3053028593369756,-1.0924212002604627,2.5365046953677846,1.1429485756087072,-0.43559352932776363
10.05,0.43650338811278927,0.30597407080268446,-1.098292148641947,2.542081226940573,1.1489130208608145,-0.4365511861669703
10.100000000000001,0.4374608576043887,0.30664522444316517,-1.1041625912380753,2.547657278092172,1.1548769522727602,-0.43750876050352594
10.15,0.43841834927976103,0.3073163936337183,-1.110033169847483,2.553233458436245,1.1608410218640435,-0.43846635702628367
10.200000000000001,0.439375967816297,0.3079876517496445,-1.1159045262688059,2.558810377586457,1.166805881654164,-0.4394240804240967
10.25,0.44033381789138726,0.3086590721662446,-1.1217773023006787,2.5643886451564697,1.1727721836626204,-0.4403820353858179
10.3,0.44129200418242237,0.309330728258819,-1.1276521397417367,2.5699688707599484,1.1787405799089117,-0.44134032660030037
10.350000000000001,0.4422506313667932,0.3100026934026686,-1.1335296803906159,2.5755516640105576,1.1847117224125374,-0.4422990587563973
10.4,0.4432098041218902,0.31067504097309395,-1.1394105660459506,2.5811376345219594,1.1906862631929964,-0.4432583365429616
10.450000000000001,0.4441696271251042,0.3113478443453958,-1.1452954385063763,2.586727391907819,1.1966648542697873,-0.4442182646488464
10.5,0.4451302050538258,0.31202117689487463,-1.1511849395705287,2.5923215457817985,1.2026481476624098,-0.4451789477629048
10.55,0.44609164258544565,0.3126951119968313,-1.1570797110370425,2.5979207057575637,1.2086367953903632,-0.44614049057398975
10.600000000000001,0.44705404439735447,0.3133697230265664,-1.1629803947045536,2.603525481448777,1.214631449473146,-0.4471029977709544
10.65,0.4480175151669428,0.31404508335938053,-1.1688876323716961,2.6091364824691032,1.2206327619302575,-0.4480665740426518
10.700000000000001,0.44898215957160154,0.3147212663705744,-1.1748020658371068,2.6147543184322055,1.226641384781197,-0.44903132407793506
10.75,0.4499480822887211,0.31539834543544865,-1.1807243368994198,2.6203795989517475,1.2326579700454627,-0.44999735256565715
10.8,0.45091538799569225,0.31607639392930403,-1.1866550873572708,2.6260129336413938,1.2386831697425549,-0.45096476419467124
10.850000000000001,0.45188418136990566,0.3167554852274411,-1.1925949590092952,2.6316549321148077,1.244717635891972,-0.45193366365383025
10.9,0.452854567088752,0.3174356927051606,-1.1985445936541277,2.637306203985653,1.2507620205132135,-0.4529041556319873
10.950000000000001,0.4538266498296219,0.3181170897377631,-1.2045046330904043,2.642967358867594,1.256816975625778,-0.4538763448179956
11.0,0.4548005342699061,0.3187997497005493,-1.2104757191167594,2.6486390063742933,1.262883153249165,-0.45485033590070795
11.05,0.4557763250869951,0.31948374596881995,-1.2164584935318294,2.654321756119416,1.2689612054028732,-0.45582623356897767
11.100000000000001,0.4567541269582798,0.3201691519178756,-1.2224535981342486,2.6600162177166253,1.275051784106402,-0.45680414251165763
11.15,0.45773404456115074,0.32085604092301695,-1.2284616747226522,2.6657230007795856,1.2811555413792506,-0.457784167417601
11.200000000000001,0.45871618150553006,0.32154448561128546,-1.2344833585508077,2.6714427087053036,1.2872731225918193,-0.45876641190807543
11.25,0.45970049074501457,0.322234453004748,-1.240518361167528,2.6771750675078687,1.293404234699239,-0.45975082893152597
11.3,0.4606866202985149,0.3229256963765987,-1.2465645245042827,2.6829180273417492,1.2995466852649948,-0.4607370664683205
11.350000000000001,0.4616741813642943,0.3236179431900065,-1.252619464737569,2.6886693239276225,1.3056980525023758,-0.46172473567414796
11.4,0.462662785140616,0.32431092090814023,-1.2586807980438839,2.6944266929861658,1.3118559146246704,-0.4627134477046966
11.450000000000001,0.4636520428257432,0.3250043569941689,-1.264746140599726,2.7001878702380564,1.318017849845169,-0.46370281371565525
11.5,0.4646415656179391,0.3256979789112616,-1.270813108581592,2.705950591403971,1.3241814363771593,-0.4646924448627124
11.55,0.46563096471546717,0.3263915141225872,-1.27687931816598,2.7117125922045884,1.3303442524339315,-0.4656819523015568
11.600000000000001,0.4666198513165905,0.3270846900913148,-1.282942385529388,2.7174716083605848,1.3365038762287742,-0.46667094718787705
11.65,0.4676078366195723,0.32777723428061317,-1.2889999268483125,2.7232253755926368,1.3426578859749763,-0.4676590406773617
11.700000000000001,0.4685945318226759,0.3284688741536514,-1.2950495582992523,2.7289716296214235,1.3488038598858272,-0.4686458439256995
11.75,0.46957954812416447,0.32915933717359847,-1.3010888960587041,2.7347081061676204,1.354939376174616,-0.4696309680885789
11.8,0.4705624967223014,0.32984835080362324,-1.307115556303166,2.740432540951906,1.3610620130546318,-0.4706140243216887
11.850000000000001,0.47154298881534973,0.3305356425068949,-1.3131271552091357,2.746142669694957,1.3671693487391636,-0.47159462378071737
11.9,0.4725206356015728,0.3312209397465822,-1.3191213089531104,2.75183622811745,1.3732589614415005,-0.4725723776213536
11.950000000000001,0.4734950482792339,0.3319039699858541,-1.325095633711588,2.757510951940064,1.3793284293749317,-0.4735468969992861
12.0,0.4744658380465962,0.3325844606878797,-1.3310477456610659,2.763164576883475,1.3853753307527459,-0.47451779307020336
12.05,0.47543261610192306,0.33326213931582804,-1.3369752609780419,2.7687948386683607,1.391397243788233,-0.4754846769897941
12.100000000000001,0.4763949936434776,0.33393673333286794,-1.3428757958390136,2.7743994730153974,1.397391746694681,-0.47644715991374686
12.15,0.47735258186952306,0.33460797020216837,-1.3487469664204785,2.7799762156452634,1.40335641768538,-0.47740485299775026
12.200000000000001,0.4783049919783228,0.33527557738689834,-1.3545863888989342,2.7855228022786362,1.4092888349736188,-0.47835736739749307
12.25,0.47925183516814,0.3359392823502268,-1.3603916794508786,2.791036968636192,1.415186576772686,-0.4793043142686637
12.3,0.4801927226372379,0.33659881255532276,-1.3661604542528085,2.7965164504386086,1.4210472212958714,-0.48024530476695104
12.350000000000001,0.4811272655838797,0.3372538954653552,-1.3718903294812228,2.801958983406564,1.4268683467564636,-0.4811799500480435
12.4,0.4820550752063288,0.33790425854349304,-1.3775789213126182,2.8073623032607347,1.432647531367752,-0.48210786126762967
12.450000000000001,0.48297576270284825,0.3385496292529053,-1.3832238459234927,2.812724145721798,1.4383823533430256,-0.4830286495813983
12.5,0.4838889392717014,0.3391897350567609,-1.3888227194903433,2.8180422465104304,1.444070390895573,-0.4839419261450379
12.55,0.48479421611115153,0.33982430341822883,-1.394373158189668,2.8233143413473107,1.449709222238684,-0.4848473021142373
12.600000000000001,0.4856912100845123,0.3404530657714864,-1.3998728129315565,2.8285381989448846,1.455296460872384,-0.48574439431035593
12.65,0.48658013504068676,0.3410761720173616,-1.4053229948676624,2.8337150647030627,1.4608334388288668,-0.48663341660571335
12.700000000000001,0.48746231947941526,0.3416945533891158,-1.410731849303434,2.838852675455837,1.4663284311303697,-0.48751569764552394
12.75,0.48833921393025415,0.34230922665877245,-1.4161082697342449,2.843959478706835,1.4717904729042364,-0.48839268811817993
12.8,0.4892122689227599,0.34292120859835484,-1.4214611496554703,2.8490439219596833,1.4772285992778122,-0.48926583871207374
12.850000000000001,0.4900829349864887,0.3435315159798867,-1.4267993825624838,2.8541144527180093,1.4826518453784414,-0.49013660011559795
12.9,0.4909526626509971,0.3441411655753912,-1.4321318619506598,2.85917951848544,1.4880692463334682,-0.4910064230171449
12.950000000000001,0.4918229024458413,0.3447511741568921,-1.4374674813153727,2.8642475667656027,1.4934898372702374,-0.4918767581051071
13.0,0.4926951049005778,0.34536255849641256,-1.4428151341519968,2.8693270450621244,1.4989226533160935,-0.49274905606787706
13.05,0.49357072054476286,0.3459763353659763,-1.4481837139559064,2.8744264008786318,1.504376729598381,-0.4936247675938471
13.100000000000001,0.4944511999079528,0.34659352153760653,-1.453582114222476,2.879554081718753,1.5098611012444447,-0.4945053433714096
13.15,0.495337993519704,0.3472151337833269,-1.4590192284470793,2.8847185350861135,1.5153848033816284,-0.4953922340889573
13.200000000000001,0.49623255190957294,0.3478421888751608,-1.4645039501250914,2.8899282084843425,1.5209568711372774,-0.4962868904348823
13.25,0.4971363256071158,0.3484757035851317,-1.4700451727518862,2.8951915494170657,1.5265863396387358,-0.4971907630975771
13.3,0.498050765141889,0.3491166946852631,-1.4756517898228378,2.900517005387911,1.5322822440133483,-0.49810530276543435
13.350000000000001,0.49897732104344894,0.34976617894757833,-1.4813326948333205,2.905913023900504,1.5380536193884597,-0.49903196012684636
13.4,0.499917443841352,0.350425173144101,-1.487096781278709,2.911388052458474,1.5439095008914139,-0.49997218587020564
13.450000000000001,0.5008725840651543,0.3510946940468544,-1.4929529426543777,2.916950538565447,1.5498589236495561,-0.5009274306839044
13.5,0.5018441922444126,0.35177575842786213,-1.4989100724557,2.9226089297250497,1.5559109227902301,-0.5018991452563355
13.55,0.5028337189086828,0.3524693830591476,-1.5049770641780515,2.9283716734409104,1.562074533440781,-0.502888780275891
13.600000000000001,0.5038426145875218,0.3531765847127343,-1.5111628113168056,2.934247217216655,1.5683587907285534,-0.5038977864309636
13.65,0.5048723298104854,0.3538983801606456,-1.5174762073673365,2.9402440085559114,1.5747727297808916,-0.5049276144099455
13.700000000000001,0.5059243151071302,0.35463578617490504,-1.5239261458250188,2.946370494962306,1.5813253857251397,-0.5059797149012294
13.75,0.5070000210070127,0.355389819527536,-1.5305215201852271,2.9526351239394666,1.5880257936886428,-0.5070555385932073
13.8,0.5081008980396889,0.35616149699056204,-1.5372712239433353,2.9590463429910208,1.5948829887987452,-0.5081565361742723
13.850000000000001,0.5092283967347154,0.3569518353360066,-1.5441841505947178,2.9656125996205946,1.6019060061827919,-0.5092841583328165
13.9,0.5103839676216486,0.3577618513358931,-1.5512691936347487,2.9723423413318155,1.6091038809681268,-0.5104398557572322
13.950000000000001,0.5115690612300449,0.35859256176224497,-1.558535246558803,2.979244015628311,1.6164856482820948,-0.511625079135912
14.0,0.5127850990904057,0.359444963059732,-1.5659910250630795,2.9863259011308205,1.6240601626213529,-0.5128412501550184
14.05,0.5140311414495696,0.3603183964932599,-1.5736307673274486,2.9935825249634513,1.6318215704068049,-0.5140874289584845
14.100000000000001,0.5153021779655368,0.3612093499830158,-1.5814237539134801,3.0009847082087306,1.6397386629824067,-0.5153586046556674
14.15,0.5165927953218187,0.36211402897773665,-1.589336794663178,3.0085009251314725,1.64777772162549,-0.5166493633373089
14.200000000000001,0.5178975802019263,0.36302863892615983,-1.5973366994185492,3.0160996499964914,1.655905027613389,-0.5179542910941505
14.25,0.5192111192893712,0.36394938527702236,-1.6053902780215978,3.0237493570686023,1.664086862223436,-0.5192679740169336
14.3,0.520527999267665,0.3648724734790616,-1.6134643403143296,3.0314185206126187,1.6722895067329635,-0.5205849981964001
14.350000000000001,0.5218428068203186,0.3657941089810146,-1.6215256961387496,3.039075614893355,1.6804792424193045,-0.5218999497232918
14.4,0.5231501286308434,0.3667104972316187,-1.6295411553368624,3.046689114175625,1.6886223505597915,-0.5232074146883497
14.450000000000001,0.5244445513827511,0.36761784367961103,-1.637477527750674,3.054227492724244,1.6966851124317575,-0.524501979182316
14.5,0.5257206617595525,0.3685123537737288,-1.6453016232221889,3.0616592248040253,1.7046338093125353,-0.5257782292959319
14.55,0.5269730464447592,0.36939023296270923,-1.6529802515934133,3.0689527846797837,1.712434722479458,-0.5270307511199389
14.600000000000001,0.5281962921218827,0.37024768669528946,-1.660480222706351,3.0760766466163334,1.7200541332098578,-0.5282541307450791
14.65,0.529384985474434,0.3710809204202067,-1.6677683464030082,3.082999284878488,1.7274583227810678,-0.5294429542620939
14.700000000000001,0.5305337131859246,0.3718861395861982,-1.6748114325253902,3.0896891737310628,1.7346135724704208,-0.5305918077617248
14.75,0.5316370619398658,0.3726595496420011,-1.6815762909155012,3.096114787438871,1.741486163555249,-0.5316952773347133
14.8,0.532689618419769,0.37339735603635266,-1.6880297314153474,3.102244600266727,1.7480423773128864,-0.5327479490718013
14.850000000000001,0.5336859693091456,0.37409576421798996,-1.6941385638669337,3.108047086479446,1.7542484950206647,-0.5337444090637302
14.9,0.5346207012915066,0.37475097963565035,-1.699869598112265,3.1134907203418414,1.7600707979559167,-0.5346792434012416
14.950000000000001,0.5354884010503635,0.37535920773807097,-1.7051896439933467,3.118543976118728,1.7654755673959759,-0.5355470381750772
15.0,0.536283655269228,0.375916653973989,-1.7100655113521839,3.123175328074919,1.7704290846181743,-0.5363423794759787
15.05,0.537001050631611,0.3764195237921416,-1.7144640100307817,3.1273532504752297,1.7748976308998452,-0.5370598533946876
15.100000000000001,0.5376351738210238,0.37686402264126595,-1.718351949871146,3.1310462175844744,1.7788474875183216,-0.5376940460219455
15.15,0.5381806115209781,0.3772463559700994,-1.7216961407152809,3.1342227036674664,1.7822449357509353,-0.5382395434484939
15.200000000000001,0.5386319504149848,0.3775627292273791,-1.7244633924051922,3.1368511829890204,1.78505625687502,-0.5386909317650743
15.25,0.5389837771865555,0.37780934786184217,-1.726620514782885,3.1389001298139507,1.787247732167908,-0.5390427970624289
15.3,0.5392306785192016,0.3779824173222258,-1.7281343176903645,3.140338018407072,1.7887856429069324,-0.5392897254312986
15.350000000000001,0.5393672410964343,0.3780781430572672,-1.7289716109696358,3.1411333230331984,1.7896362703694257,-0.5394263029624254
15.4,0.5393880516017648,0.3780927305157037,-1.7290992044627047,3.141254517957143,1.789765895832721,-0.5394471157465508
